images/3233608.svg

<?xml version="1.0" encoding="UTF-8"?>
<svg xmlns="http://www.w3.org/2000/svg" xmlns:xlink="http://www.w3.org/1999/xlink" width="300pt" height="300pt" viewBox="0 0 300 300" version="1.1">
<defs>
<g>
<symbol overflow="visible" id="glyph0-0">
<path style="stroke:none;" d="M 0.453125 1.59375 L 0.453125 -6.34375 L 4.953125 -6.34375 L 4.953125 1.59375 Z M 0.953125 1.09375 L 4.453125 1.09375 L 4.453125 -5.84375 L 0.953125 -5.84375 Z M 0.953125 1.09375 "/>
</symbol>
<symbol overflow="visible" id="glyph0-1">
<path style="stroke:none;" d="M 3.546875 -5.953125 C 2.898438 -5.953125 2.382812 -5.710938 2 -5.234375 C 1.625 -4.753906 1.4375 -4.101562 1.4375 -3.28125 C 1.4375 -2.445312 1.625 -1.789062 2 -1.3125 C 2.382812 -0.832031 2.898438 -0.59375 3.546875 -0.59375 C 4.191406 -0.59375 4.703125 -0.832031 5.078125 -1.3125 C 5.453125 -1.789062 5.640625 -2.445312 5.640625 -3.28125 C 5.640625 -4.101562 5.453125 -4.753906 5.078125 -5.234375 C 4.703125 -5.710938 4.191406 -5.953125 3.546875 -5.953125 Z M 3.546875 -6.6875 C 4.460938 -6.6875 5.195312 -6.375 5.75 -5.75 C 6.300781 -5.132812 6.578125 -4.3125 6.578125 -3.28125 C 6.578125 -2.238281 6.300781 -1.410156 5.75 -0.796875 C 5.195312 -0.179688 4.460938 0.125 3.546875 0.125 C 2.617188 0.125 1.878906 -0.179688 1.328125 -0.796875 C 0.773438 -1.410156 0.5 -2.238281 0.5 -3.28125 C 0.5 -4.3125 0.773438 -5.132812 1.328125 -5.75 C 1.878906 -6.375 2.617188 -6.6875 3.546875 -6.6875 Z M 3.546875 -6.6875 "/>
</symbol>
<symbol overflow="visible" id="glyph0-2">
<path style="stroke:none;" d="M 0.890625 -6.5625 L 2.078125 -6.5625 L 4.984375 -1.078125 L 4.984375 -6.5625 L 5.84375 -6.5625 L 5.84375 0 L 4.65625 0 L 1.75 -5.484375 L 1.75 0 L 0.890625 0 Z M 0.890625 -6.5625 "/>
</symbol>
</g>
</defs>
<g id="surface31313">
<rect x="0" y="0" width="300" height="300" style="fill:rgb(100%,100%,100%);fill-opacity:1;stroke:none;"/>
<path style="fill:none;stroke-width:1.2;stroke-linecap:butt;stroke-linejoin:miter;stroke:rgb(0%,0%,0%);stroke-opacity:1;stroke-miterlimit:10;" d="M 44.4375 100.660156 L 39.84375 109.019531 "/>
<path style="fill:none;stroke-width:1.2;stroke-linecap:butt;stroke-linejoin:miter;stroke:rgb(100%,0%,0%);stroke-opacity:1;stroke-miterlimit:10;" d="M 39.84375 109.019531 L 35.25 117.375 "/>
<path style="fill:none;stroke-width:1.2;stroke-linecap:butt;stroke-linejoin:miter;stroke:rgb(100%,0%,0%);stroke-opacity:1;stroke-miterlimit:10;" d="M 35.25 117.375 L 40.191406 125.53125 "/>
<path style="fill:none;stroke-width:1.2;stroke-linecap:butt;stroke-linejoin:miter;stroke:rgb(0%,0%,0%);stroke-opacity:1;stroke-miterlimit:10;" d="M 40.191406 125.53125 L 45.128906 133.6875 "/>
<path style=" stroke:none;fill-rule:nonzero;fill:rgb(100%,100%,100%);fill-opacity:1;" d="M 31.25 111.875 L 39.25 111.875 L 39.25 122.875 L 31.25 122.875 Z M 31.25 111.875 "/>
<g style="fill:rgb(100%,0%,0%);fill-opacity:1;">
  <use xlink:href="#glyph0-1" x="31.25" y="120.538086"/>
</g>
<path style="fill:none;stroke-width:1.2;stroke-linecap:butt;stroke-linejoin:miter;stroke:rgb(0%,0%,0%);stroke-opacity:1;stroke-miterlimit:10;" d="M 45.128906 133.6875 L 64.199219 133.289062 "/>
<path style="fill:none;stroke-width:1.2;stroke-linecap:butt;stroke-linejoin:miter;stroke:rgb(0%,0%,0%);stroke-opacity:1;stroke-miterlimit:10;" d="M 47.132812 138.132812 L 62.382812 137.8125 "/>
<path style="fill:none;stroke-width:1.2;stroke-linecap:butt;stroke-linejoin:miter;stroke:rgb(0%,0%,0%);stroke-opacity:1;stroke-miterlimit:10;" d="M 35.941406 150.398438 L 45.128906 133.6875 "/>
<path style="fill:none;stroke-width:1.2;stroke-linecap:butt;stroke-linejoin:miter;stroke:rgb(0%,0%,0%);stroke-opacity:1;stroke-miterlimit:10;" d="M 64.199219 133.289062 L 74.078125 149.601562 "/>
<path style="fill:none;stroke-width:1.2;stroke-linecap:butt;stroke-linejoin:miter;stroke:rgb(0%,0%,0%);stroke-opacity:1;stroke-miterlimit:10;" d="M 74.078125 149.601562 L 64.890625 166.3125 "/>
<path style="fill:none;stroke-width:1.2;stroke-linecap:butt;stroke-linejoin:miter;stroke:rgb(0%,0%,0%);stroke-opacity:1;stroke-miterlimit:10;" d="M 69.226562 149.109375 L 61.875 162.480469 "/>
<path style="fill:none;stroke-width:1.2;stroke-linecap:butt;stroke-linejoin:miter;stroke:rgb(0%,0%,0%);stroke-opacity:1;stroke-miterlimit:10;" d="M 64.890625 166.3125 L 45.824219 166.710938 "/>
<path style="fill:none;stroke-width:1.2;stroke-linecap:butt;stroke-linejoin:miter;stroke:rgb(0%,0%,0%);stroke-opacity:1;stroke-miterlimit:10;" d="M 64.890625 166.3125 L 74.769531 182.625 "/>
<path style="fill:none;stroke-width:1.2;stroke-linecap:butt;stroke-linejoin:miter;stroke:rgb(0%,0%,0%);stroke-opacity:1;stroke-miterlimit:10;" d="M 45.824219 166.710938 L 35.941406 150.398438 "/>
<path style="fill:none;stroke-width:1.2;stroke-linecap:butt;stroke-linejoin:miter;stroke:rgb(0%,0%,0%);stroke-opacity:1;stroke-miterlimit:10;" d="M 48.671875 162.757812 L 40.769531 149.707031 "/>
<path style="fill:none;stroke-width:1.2;stroke-linecap:butt;stroke-linejoin:miter;stroke:rgb(0%,0%,0%);stroke-opacity:1;stroke-miterlimit:10;" d="M 72.804688 181.542969 L 68.210938 189.902344 "/>
<path style="fill:none;stroke-width:1.2;stroke-linecap:butt;stroke-linejoin:miter;stroke:rgb(100%,0%,0%);stroke-opacity:1;stroke-miterlimit:10;" d="M 68.210938 189.902344 L 63.617188 198.257812 "/>
<path style="fill:none;stroke-width:1.2;stroke-linecap:butt;stroke-linejoin:miter;stroke:rgb(0%,0%,0%);stroke-opacity:1;stroke-miterlimit:10;" d="M 76.738281 183.707031 L 72.144531 192.0625 "/>
<path style="fill:none;stroke-width:1.2;stroke-linecap:butt;stroke-linejoin:miter;stroke:rgb(100%,0%,0%);stroke-opacity:1;stroke-miterlimit:10;" d="M 72.144531 192.0625 L 67.550781 200.417969 "/>
<path style="fill:none;stroke-width:1.2;stroke-linecap:butt;stroke-linejoin:miter;stroke:rgb(0%,0%,0%);stroke-opacity:1;stroke-miterlimit:10;" d="M 74.769531 182.625 L 84.304688 182.425781 "/>
<path style="fill:none;stroke-width:1.2;stroke-linecap:butt;stroke-linejoin:miter;stroke:rgb(0%,0%,100%);stroke-opacity:1;stroke-miterlimit:10;" d="M 84.304688 182.425781 L 93.835938 182.226562 "/>
<path style=" stroke:none;fill-rule:nonzero;fill:rgb(100%,100%,100%);fill-opacity:1;" d="M 57.582031 193.839844 L 65.582031 193.839844 L 65.582031 204.839844 L 57.582031 204.839844 Z M 57.582031 193.839844 "/>
<g style="fill:rgb(100%,0%,0%);fill-opacity:1;">
  <use xlink:href="#glyph0-1" x="57.582031" y="202.50293"/>
</g>
<path style="fill:none;stroke-width:1.2;stroke-linecap:butt;stroke-linejoin:miter;stroke:rgb(0%,0%,100%);stroke-opacity:1;stroke-miterlimit:10;" d="M 93.835938 182.226562 L 98.777344 190.382812 "/>
<path style="fill:none;stroke-width:1.2;stroke-linecap:butt;stroke-linejoin:miter;stroke:rgb(0%,0%,0%);stroke-opacity:1;stroke-miterlimit:10;" d="M 98.777344 190.382812 L 103.71875 198.539062 "/>
<path style="fill:none;stroke-width:1.2;stroke-linecap:butt;stroke-linejoin:miter;stroke:rgb(0%,0%,0%);stroke-opacity:1;stroke-miterlimit:10;" d="M 103.023438 165.511719 L 98.429688 173.867188 "/>
<path style="fill:none;stroke-width:1.2;stroke-linecap:butt;stroke-linejoin:miter;stroke:rgb(0%,0%,100%);stroke-opacity:1;stroke-miterlimit:10;" d="M 98.429688 173.867188 L 93.835938 182.226562 "/>
<path style=" stroke:none;fill-rule:nonzero;fill:rgb(100%,100%,100%);fill-opacity:1;" d="M 90.835938 176.726562 L 97.835938 176.726562 L 97.835938 187.726562 L 90.835938 187.726562 Z M 90.835938 176.726562 "/>
<g style="fill:rgb(0%,0%,100%);fill-opacity:1;">
  <use xlink:href="#glyph0-2" x="90.835938" y="185.389648"/>
</g>
<path style="fill:none;stroke-width:1.2;stroke-linecap:butt;stroke-linejoin:miter;stroke:rgb(0%,0%,0%);stroke-opacity:1;stroke-miterlimit:10;" d="M 103.71875 198.539062 L 122.785156 198.136719 "/>
<path style="fill:none;stroke-width:1.2;stroke-linecap:butt;stroke-linejoin:miter;stroke:rgb(0%,0%,0%);stroke-opacity:1;stroke-miterlimit:10;" d="M 122.785156 198.136719 L 131.972656 181.425781 "/>
<path style="fill:none;stroke-width:1.2;stroke-linecap:butt;stroke-linejoin:miter;stroke:rgb(0%,0%,0%);stroke-opacity:1;stroke-miterlimit:10;" d="M 131.972656 181.425781 L 141.851562 197.738281 "/>
<path style="fill:none;stroke-width:1.2;stroke-linecap:butt;stroke-linejoin:miter;stroke:rgb(0%,0%,0%);stroke-opacity:1;stroke-miterlimit:10;" d="M 131.972656 181.425781 L 122.09375 165.113281 "/>
<path style="fill:none;stroke-width:1.2;stroke-linecap:butt;stroke-linejoin:miter;stroke:rgb(0%,0%,0%);stroke-opacity:1;stroke-miterlimit:10;" d="M 141.160156 164.710938 L 131.972656 181.425781 "/>
<path style="fill:none;stroke-width:1.2;stroke-linecap:butt;stroke-linejoin:miter;stroke:rgb(0%,0%,0%);stroke-opacity:1;stroke-miterlimit:10;" d="M 141.851562 197.738281 L 160.917969 197.339844 "/>
<path style="fill:none;stroke-width:1.2;stroke-linecap:butt;stroke-linejoin:miter;stroke:rgb(0%,0%,0%);stroke-opacity:1;stroke-miterlimit:10;" d="M 160.917969 197.339844 L 170.105469 180.625 "/>
<path style="fill:none;stroke-width:1.2;stroke-linecap:butt;stroke-linejoin:miter;stroke:rgb(0%,0%,0%);stroke-opacity:1;stroke-miterlimit:10;" d="M 170.105469 180.625 L 165.167969 172.46875 "/>
<path style="fill:none;stroke-width:1.2;stroke-linecap:butt;stroke-linejoin:miter;stroke:rgb(0%,0%,100%);stroke-opacity:1;stroke-miterlimit:10;" d="M 165.167969 172.46875 L 160.226562 164.3125 "/>
<path style="fill:none;stroke-width:1.2;stroke-linecap:butt;stroke-linejoin:miter;stroke:rgb(0%,0%,100%);stroke-opacity:1;stroke-miterlimit:10;" d="M 160.226562 164.3125 L 150.691406 164.511719 "/>
<path style="fill:none;stroke-width:1.2;stroke-linecap:butt;stroke-linejoin:miter;stroke:rgb(0%,0%,0%);stroke-opacity:1;stroke-miterlimit:10;" d="M 150.691406 164.511719 L 141.160156 164.710938 "/>
<path style="fill:none;stroke-width:1.2;stroke-linecap:butt;stroke-linejoin:miter;stroke:rgb(0%,0%,100%);stroke-opacity:1;stroke-miterlimit:10;" d="M 160.226562 164.3125 L 164.820312 155.957031 "/>
<path style="fill:none;stroke-width:1.2;stroke-linecap:butt;stroke-linejoin:miter;stroke:rgb(0%,0%,0%);stroke-opacity:1;stroke-miterlimit:10;" d="M 164.820312 155.957031 L 169.414062 147.601562 "/>
<path style=" stroke:none;fill-rule:nonzero;fill:rgb(100%,100%,100%);fill-opacity:1;" d="M 157.226562 158.8125 L 164.226562 158.8125 L 164.226562 169.8125 L 157.226562 169.8125 Z M 157.226562 158.8125 "/>
<g style="fill:rgb(0%,0%,100%);fill-opacity:1;">
  <use xlink:href="#glyph0-2" x="157.226562" y="167.475586"/>
</g>
<path style="fill:none;stroke-width:1.2;stroke-linecap:butt;stroke-linejoin:miter;stroke:rgb(0%,0%,0%);stroke-opacity:1;stroke-miterlimit:10;" d="M 169.414062 147.601562 L 188.480469 147.199219 "/>
<path style="fill:none;stroke-width:1.2;stroke-linecap:butt;stroke-linejoin:miter;stroke:rgb(0%,0%,0%);stroke-opacity:1;stroke-miterlimit:10;" d="M 188.480469 147.199219 L 198.359375 163.511719 "/>
<path style="fill:none;stroke-width:1.2;stroke-linecap:butt;stroke-linejoin:miter;stroke:rgb(0%,0%,0%);stroke-opacity:1;stroke-miterlimit:10;" d="M 193.308594 146.507812 L 201.210938 159.554688 "/>
<path style="fill:none;stroke-width:1.2;stroke-linecap:butt;stroke-linejoin:miter;stroke:rgb(0%,0%,0%);stroke-opacity:1;stroke-miterlimit:10;" d="M 197.667969 130.488281 L 188.480469 147.199219 "/>
<path style="fill:none;stroke-width:1.2;stroke-linecap:butt;stroke-linejoin:miter;stroke:rgb(0%,0%,0%);stroke-opacity:1;stroke-miterlimit:10;" d="M 198.359375 163.511719 L 217.429688 163.113281 "/>
<path style="fill:none;stroke-width:1.2;stroke-linecap:butt;stroke-linejoin:miter;stroke:rgb(0%,0%,0%);stroke-opacity:1;stroke-miterlimit:10;" d="M 217.429688 163.113281 L 226.617188 146.398438 "/>
<path style="fill:none;stroke-width:1.2;stroke-linecap:butt;stroke-linejoin:miter;stroke:rgb(0%,0%,0%);stroke-opacity:1;stroke-miterlimit:10;" d="M 214.414062 159.28125 L 221.765625 145.910156 "/>
<path style="fill:none;stroke-width:1.2;stroke-linecap:butt;stroke-linejoin:miter;stroke:rgb(0%,0%,0%);stroke-opacity:1;stroke-miterlimit:10;" d="M 226.617188 146.398438 L 216.734375 130.085938 "/>
<path style="fill:none;stroke-width:1.2;stroke-linecap:butt;stroke-linejoin:miter;stroke:rgb(0%,0%,0%);stroke-opacity:1;stroke-miterlimit:10;" d="M 226.617188 146.398438 L 245.683594 146 "/>
<path style="fill:none;stroke-width:1.2;stroke-linecap:butt;stroke-linejoin:miter;stroke:rgb(0%,0%,0%);stroke-opacity:1;stroke-miterlimit:10;" d="M 216.734375 130.085938 L 197.667969 130.488281 "/>
<path style="fill:none;stroke-width:1.2;stroke-linecap:butt;stroke-linejoin:miter;stroke:rgb(0%,0%,0%);stroke-opacity:1;stroke-miterlimit:10;" d="M 214.921875 134.613281 L 199.667969 134.933594 "/>
<path style="fill:none;stroke-width:1.2;stroke-linecap:butt;stroke-linejoin:miter;stroke:rgb(0%,0%,0%);stroke-opacity:1;stroke-miterlimit:10;" d="M 245.683594 146 L 255.214844 145.800781 "/>
<path style="fill:none;stroke-width:1.2;stroke-linecap:butt;stroke-linejoin:miter;stroke:rgb(0%,0%,100%);stroke-opacity:1;stroke-miterlimit:10;" d="M 255.214844 145.800781 L 264.75 145.597656 "/>
<path style="fill:none;stroke-width:1.2;stroke-linecap:butt;stroke-linejoin:miter;stroke:rgb(0%,0%,0%);stroke-opacity:1;stroke-miterlimit:10;" d="M 247.683594 150.445312 L 255.308594 150.285156 "/>
<path style="fill:none;stroke-width:1.2;stroke-linecap:butt;stroke-linejoin:miter;stroke:rgb(0%,0%,100%);stroke-opacity:1;stroke-miterlimit:10;" d="M 255.308594 150.285156 L 262.9375 150.125 "/>
<path style="fill:none;stroke-width:1.2;stroke-linecap:butt;stroke-linejoin:miter;stroke:rgb(0%,0%,0%);stroke-opacity:1;stroke-miterlimit:10;" d="M 247.496094 141.472656 L 255.121094 141.3125 "/>
<path style="fill:none;stroke-width:1.2;stroke-linecap:butt;stroke-linejoin:miter;stroke:rgb(0%,0%,100%);stroke-opacity:1;stroke-miterlimit:10;" d="M 255.121094 141.3125 L 262.75 141.152344 "/>
<path style=" stroke:none;fill-rule:nonzero;fill:rgb(100%,100%,100%);fill-opacity:1;" d="M 261.75 140.097656 L 268.75 140.097656 L 268.75 151.097656 L 261.75 151.097656 Z M 261.75 140.097656 "/>
<g style="fill:rgb(0%,0%,100%);fill-opacity:1;">
  <use xlink:href="#glyph0-2" x="261.75" y="148.760742"/>
</g>
<path style="fill:none;stroke-width:1.2;stroke-linecap:butt;stroke-linejoin:miter;stroke:rgb(0%,0%,0%);stroke-opacity:1;stroke-miterlimit:10;" d="M 122.09375 165.113281 L 103.023438 165.511719 "/>
</g>
</svg>

<svg xmlns="http://www.w3.org/2000/svg" xmlns:xlink="http://www.w3.org/1999/xlink" width="300pt" height="300pt" viewBox="0 0 300 300"><defs><symbol overflow="visible"><path d="M.453 1.594v-7.938h4.5v7.938zm.5-.5h3.5v-6.938h-3.5zm0 0"/></symbol><symbol overflow="visible" id="a"><path d="M3.547-5.953c-.65 0-1.164.242-1.547.72-.375.48-.563 1.13-.563 1.952 0 .835.188 1.49.563 1.967.383.48.898.72 1.547.72.644 0 1.156-.24 1.53-.72.376-.476.564-1.132.564-1.968 0-.822-.187-1.474-.562-1.954-.375-.477-.887-.72-1.53-.72zm0-.734c.914 0 1.648.312 2.203.937.55.617.828 1.438.828 2.47 0 1.042-.277 1.87-.828 2.483-.555.617-1.29.922-2.203.922-.93 0-1.668-.305-2.22-.922C.774-1.41.5-2.237.5-3.28c0-1.033.273-1.853.828-2.47.55-.625 1.29-.938 2.22-.938zm0 0"/></symbol><symbol overflow="visible" id="b"><path d="M.89-6.563H2.08l2.906 5.485v-5.484h.86V0H4.656L1.75-5.484V0H.89zm0 0"/></symbol></defs><g><path fill="#fff" d="M0 0h300v300H0z"/><path d="M44.438 100.66l-4.594 8.36" stroke-width="1.2" stroke="#000" stroke-miterlimit="10" fill="none"/><path d="M39.844 109.02l-4.594 8.355M35.25 117.375l4.94 8.156" stroke-width="1.2" stroke="#f00" stroke-miterlimit="10" fill="none"/><path d="M40.19 125.53l4.94 8.157" stroke-width="1.2" stroke="#000" stroke-miterlimit="10" fill="none"/><path d="M31.25 111.875h8v11h-8zm0 0" fill="#fff"/><use xlink:href="#a" x="31.25" y="120.538" fill="#f00"/><path d="M45.13 133.688l19.07-.4M47.133 138.133l15.25-.32M35.94 150.398l9.19-16.71M64.2 133.29l9.878 16.312M74.078 149.602l-9.187 16.71M69.227 149.11l-7.352 13.37M64.89 166.313l-19.066.398M64.89 166.313l9.88 16.312M45.824 166.71L35.94 150.4M48.672 162.758l-7.902-13.05M72.805 181.543l-4.594 8.36" stroke-width="1.2" stroke="#000" stroke-miterlimit="10" fill="none"/><path d="M68.21 189.902l-4.593 8.356" stroke-width="1.2" stroke="#f00" stroke-miterlimit="10" fill="none"/><path d="M76.738 183.707l-4.593 8.356" stroke-width="1.2" stroke="#000" stroke-miterlimit="10" fill="none"/><path d="M72.145 192.063l-4.594 8.355" stroke-width="1.2" stroke="#f00" stroke-miterlimit="10" fill="none"/><path d="M74.77 182.625l9.535-.2" stroke-width="1.2" stroke="#000" stroke-miterlimit="10" fill="none"/><path d="M84.305 182.426l9.53-.2" stroke-width="1.2" stroke="#00f" stroke-miterlimit="10" fill="none"/><path d="M57.582 193.84h8v11h-8zm0 0" fill="#fff"/><use xlink:href="#a" x="57.582" y="202.503" fill="#f00"/><path d="M93.836 182.227l4.94 8.156" stroke-width="1.2" stroke="#00f" stroke-miterlimit="10" fill="none"/><path d="M98.777 190.383l4.942 8.156M103.023 165.512l-4.593 8.355" stroke-width="1.2" stroke="#000" stroke-miterlimit="10" fill="none"/><path d="M98.43 173.867l-4.594 8.36" stroke-width="1.2" stroke="#00f" stroke-miterlimit="10" fill="none"/><path d="M90.836 176.727h7v11h-7zm0 0" fill="#fff"/><use xlink:href="#b" x="90.836" y="185.39" fill="#00f"/><path d="M103.72 198.54l19.065-.403M122.785 198.137l9.188-16.71M131.973 181.426l9.88 16.312M131.973 181.426l-9.88-16.313M141.16 164.71l-9.187 16.716M141.852 197.738l19.066-.398M160.918 197.34l9.187-16.715M170.105 180.625l-4.937-8.156" stroke-width="1.2" stroke="#000" stroke-miterlimit="10" fill="none"/><path d="M165.168 172.47l-4.94-8.157M160.227 164.313l-9.536.2" stroke-width="1.2" stroke="#00f" stroke-miterlimit="10" fill="none"/><path d="M150.69 164.512l-9.53.2" stroke-width="1.2" stroke="#000" stroke-miterlimit="10" fill="none"/><path d="M160.227 164.313l4.593-8.356" stroke-width="1.2" stroke="#00f" stroke-miterlimit="10" fill="none"/><path d="M164.82 155.957l4.594-8.355" stroke-width="1.2" stroke="#000" stroke-miterlimit="10" fill="none"/><path d="M157.227 158.813h7v11h-7zm0 0" fill="#fff"/><use xlink:href="#b" x="157.227" y="167.476" fill="#00f"/><path d="M169.414 147.602l19.066-.403M188.48 147.2l9.88 16.312M193.31 146.508l7.9 13.047M197.668 130.488l-9.188 16.71M198.36 163.512l19.07-.4M217.43 163.113l9.187-16.715M214.414 159.28l7.352-13.37M226.617 146.398l-9.883-16.312M226.617 146.398l19.067-.398M216.734 130.086l-19.066.402M214.922 134.613l-15.254.32M245.684 146l9.53-.2" stroke-width="1.2" stroke="#000" stroke-miterlimit="10" fill="none"/><path d="M255.215 145.8l9.535-.202" stroke-width="1.2" stroke="#00f" stroke-miterlimit="10" fill="none"/><path d="M247.684 150.445l7.625-.16" stroke-width="1.2" stroke="#000" stroke-miterlimit="10" fill="none"/><path d="M255.31 150.285l7.627-.16" stroke-width="1.2" stroke="#00f" stroke-miterlimit="10" fill="none"/><path d="M247.496 141.473l7.625-.16" stroke-width="1.2" stroke="#000" stroke-miterlimit="10" fill="none"/><path d="M255.12 141.313l7.63-.16" stroke-width="1.2" stroke="#00f" stroke-miterlimit="10" fill="none"/><path d="M261.75 140.098h7v11h-7zm0 0" fill="#fff"/><use xlink:href="#b" x="261.75" y="148.761" fill="#00f"/><path d="M122.094 165.113l-19.07.4" stroke-width="1.2" stroke="#000" stroke-miterlimit="10" fill="none"/></g></svg>
